dist/svg/magic.svg

<!-- Generated by Trend Micro Style Portal -->
<svg version="1.1" xmlns="http://www.w3.org/2000/svg" width="16" height="16" viewBox="0 0 16 16">
  <title>magic</title>
  <path fill="rgb(34,34,34)" d="M2 3.5c1.4 0 2.5-1.1 2.5-2.5 0 1.4 1.1 2.5 2.5 2.5-1.4 0-2.5 1.1-2.5 2.5 0-1.4-1.1-2.5-2.5-2.5zM13 1.5c0.8 0 1.5-0.7 1.5-1.5 0 0.8 0.7 1.5 1.5 1.5-0.8 0-1.5 0.7-1.5 1.5 0-0.8-0.7-1.5-1.5-1.5zM15 9.5c-0.8 0-1.5 0.7-1.5 1.5 0-0.8-0.7-1.5-1.5-1.5 0.8 0 1.5-0.7 1.5-1.5 0 0.8 0.7 1.5 1.5 1.5zM11 3l-11 11 2 2 11-11-2-2zM9.5 7.5l-1-1 2.5-2.4 0.9 0.9-2.4 2.5z"></path>
</svg>

<svg width="16" height="16" viewBox="0 0 16 16" fill="rgb(34, 34, 34)" xmlns="http://www.w3.org/2000/svg"><title>magic</title><path d="M2 3.5C3.4 3.5 4.5 2.4 4.5 1C4.5 2.4 5.6 3.5 7 3.5C5.6 3.5 4.5 4.6 4.5 6C4.5 4.6 3.4 3.5 2 3.5ZM13 1.5C13.8 1.5 14.5 0.8 14.5 0C14.5 0.8 15.2 1.5 16 1.5C15.2 1.5 14.5 2.2 14.5 3C14.5 2.2 13.8 1.5 13 1.5ZM15 9.5C14.2 9.5 13.5 10.2 13.5 11C13.5 10.2 12.8 9.5 12 9.5C12.8 9.5 13.5 8.8 13.5 8C13.5 8.8 14.2 9.5 15 9.5ZM11 3L0 14L2 16L13 5L11 3ZM9.5 7.5L8.5 6.5L11 4.1L11.9 5L9.5 7.5Z" fill="rgb(34, 34, 34)" fill-opacity="1.00"/></svg>
